X:2740
T:Castle's Minuet. BC.07
M:3/4
L:1/8
Q:100
S:Benjamin Cooke MS.circa 1770, F.Kidson Coll.
R:Minuet
O:England
A:x
Z:John Bagnall
K:D
d2 f2 a2 | fgfe d2 | f2 gfed | edcB A2 | d2 f2 a2 | fgfe d2 | f2 gfed |
e6 :|!
|:e2 f^g a2 | e2 (dc)(BA)| e2 f^g a2 | e2 dcBA | gfga g2 | fefgfg | e2 A
2
"tr"c2 | d6 :|]


